!!!SOCIAL_FUNCTION:	songs with treatment of the sick
!!!PDT:	1943
!!!OTL: No_24_Song_of_a_Medicine_Man_at_Nitinat_Lake_(b).krn
!!!REG: British Columbia
**kern	**kern
*staff2	*staff1
=1-	=1-
*clefF4	*clefF4
*k[f#]	*k[f#]
*M3/4	*M3/4
16GG/LL	8c\L
16GG/	.
16GG/	8B\J
16GG/JJ	.
16GG/LL	8c\L
16GG/	.
16GG/	8B\J
16GG/JJ	.
16GG/LL	4A\
16GG/	.
16GG/	.
16GG/JJ	.
=2||	=2||
*M2/4	*M2/4
2r	4B\
.	8A\L
.	16F#\L
.	16D\JJ
=3	=3
2r	8.D\L
.	16E\Jk
.	8D\
.	8r
=4	=4
2r	4A\
.	4A\
=5	=5
2r	12B\L
.	12A\
.	[12G\J
.	4G\_
=6	=6
2r	4G\]
.	4r
=7||	=7||
*M3/4	*M3/4
2.r	4A\
.	16B\LL
.	16A\
.	16B\
.	16A\JJ
.	8G\
.	8r
=8||	=8||
*M2/4	*M2/4
2r	16B\LL
.	16A\
.	16B\
.	16A\JJ
.	16F#\LL
.	16E\JJ
.	8r
=9	=9
2r	8.D\L
.	16E\Jk
.	8D\
.	8r
=10	=10
2r	8.BB/L
.	16C/Jk
.	8BB/
.	8r
=11	=11
2r	8E\L
.	16D\L
.	16E\JJ
.	8D\
.	8r
=12	=12
2r	4A\
.	12B^\L
.	12A\
.	24E\Jk
.	24r
=13	=13
2r	4D\
.	8D\
.	8r
=14	=14
2r	4A\
.	4A\
=15	=15
2r	12B\L
.	12A\
.	[12G\J
.	4G\]
==	==
*-	*-
